status/16/image-missing.svg

<?xml version="1.0" encoding="UTF-8" standalone="no"?>
<svg
   xmlns:dc="http://purl.org/dc/elements/1.1/"
   xmlns:cc="http://creativecommons.org/ns#"
   xmlns:rdf="http://www.w3.org/1999/02/22-rdf-syntax-ns#"
   xmlns:svg="http://www.w3.org/2000/svg"
   xmlns="http://www.w3.org/2000/svg"
   xmlns:xlink="http://www.w3.org/1999/xlink"
   version="1.0"
   width="16"
   height="16"
   id="svg2403">
  <metadata
     id="metadata43">
    <rdf:RDF>
      <cc:Work
         rdf:about="">
        <dc:format>image/svg+xml</dc:format>
        <dc:type
           rdf:resource="http://purl.org/dc/dcmitype/StillImage" />
      </cc:Work>
    </rdf:RDF>
  </metadata>
  <defs
     id="defs2405">
    <linearGradient
       id="linearGradient259-942">
      <stop
         id="stop3802"
         style="stop-color:#ffffff;stop-opacity:1"
         offset="0" />
      <stop
         id="stop3804"
         style="stop-color:#e0e0e0;stop-opacity:1"
         offset="1" />
    </linearGradient>
    <linearGradient
       x1="108.26451"
       y1="110.28094"
       x2="25.817675"
       y2="14.029031"
       id="linearGradient2401"
       xlink:href="#linearGradient259-942"
       gradientUnits="userSpaceOnUse"
       gradientTransform="matrix(0.1688795,0,0,0.1268359,-19.447473,-16.155807)" />
    <linearGradient
       id="linearGradient3610-302">
      <stop
         id="stop3796"
         style="stop-color:#333333;stop-opacity:1"
         offset="0" />
      <stop
         id="stop3798"
         style="stop-color:#292929;stop-opacity:1"
         offset="1" />
    </linearGradient>
    <linearGradient
       x1="-24.032034"
       y1="-13.090545"
       x2="-24.097931"
       y2="-40.163883"
       id="linearGradient2398"
       xlink:href="#linearGradient3610-302"
       gradientUnits="userSpaceOnUse"
       gradientTransform="matrix(0.314286,0,0,0.3333332,-0.4548608,0.9981846)" />
    <linearGradient
       id="linearGradient4157-401-351">
      <stop
         id="stop3790"
         style="stop-color:#262626;stop-opacity:1"
         offset="0" />
      <stop
         id="stop3792"
         style="stop-color:#828282;stop-opacity:1"
         offset="1" />
    </linearGradient>
    <linearGradient
       x1="28.938274"
       y1="17.33289"
       x2="105.36545"
       y2="92.823723"
       id="linearGradient2396"
       xlink:href="#linearGradient4157-401-351"
       gradientUnits="userSpaceOnUse"
       gradientTransform="matrix(0.138442,0,0,0.1141004,-17.408582,-14.556432)" />
    <linearGradient
       x1="7.8322024"
       y1="10.935848"
       x2="18.67845"
       y2="10.935848"
       id="linearGradient2476"
       xlink:href="#linearGradient2432"
       gradientUnits="userSpaceOnUse"
       gradientTransform="matrix(0.6660814,0,0,0.7658657,-0.570797,-0.5707967)" />
    <linearGradient
       x1="7.8322024"
       y1="10.935848"
       x2="18.67845"
       y2="10.935848"
       id="linearGradient2432"
       gradientUnits="userSpaceOnUse"
       gradientTransform="scale(0.9325827,1.0722909)">
      <stop
         id="stop2434"
         style="stop-color:#ffffff;stop-opacity:1"
         offset="0" />
      <stop
         id="stop2436"
         style="stop-color:#ffffff;stop-opacity:0"
         offset="1" />
    </linearGradient>
    <linearGradient
       x1="63.397362"
       y1="-12.489107"
       x2="63.397362"
       y2="5.4675598"
       id="linearGradient2479"
       xlink:href="#linearGradient4873"
       gradientUnits="userSpaceOnUse"
       gradientTransform="matrix(0.7432394,0,0,0.7432224,-38.229789,10.609333)" />
    <linearGradient
       id="linearGradient4873">
      <stop
         id="stop4875"
         style="stop-color:#ffffff;stop-opacity:1"
         offset="0" />
      <stop
         id="stop4877"
         style="stop-color:#ffffff;stop-opacity:0"
         offset="1" />
    </linearGradient>
    <radialGradient
       cx="23.895569"
       cy="3.9900031"
       r="20.397499"
       fx="23.895569"
       fy="3.9900031"
       id="radialGradient2482"
       xlink:href="#linearGradient3242"
       gradientUnits="userSpaceOnUse"
       gradientTransform="matrix(0,0.8796593,-1.1611346,0,12.632931,-21.08413)" />
    <linearGradient
       id="linearGradient3242">
      <stop
         id="stop3244"
         style="stop-color:#f8b17e;stop-opacity:1"
         offset="0" />
      <stop
         id="stop3246"
         style="stop-color:#e35d4f;stop-opacity:1"
         offset="0.26238" />
      <stop
         id="stop3248"
         style="stop-color:#c6262e;stop-opacity:1"
         offset="0.66093999" />
      <stop
         id="stop3250"
         style="stop-color:#690b54;stop-opacity:1"
         offset="1" />
    </linearGradient>
    <linearGradient
       x1="18.379412"
       y1="44.980297"
       x2="18.379412"
       y2="3.0816143"
       id="linearGradient2484"
       xlink:href="#linearGradient2490"
       gradientUnits="userSpaceOnUse"
       gradientTransform="matrix(0.3685738,0,0,0.3685738,-0.84577,-0.8457701)" />
    <linearGradient
       id="linearGradient2490">
      <stop
         id="stop2492"
         style="stop-color:#791235;stop-opacity:1"
         offset="0" />
      <stop
         id="stop2494"
         style="stop-color:#dd3b27;stop-opacity:1"
         offset="1" />
    </linearGradient>
  </defs>
  <g
     id="layer1">
    <rect
       width="14.98859"
       height="12.971473"
       x="-15.487202"
       y="-14.500747"
       transform="matrix(-0.9999982,0.00187754,-8.8666999e-4,-0.9999996,0,0)"
       id="rect3580"
       style="fill:url(#linearGradient2401);fill-opacity:1;stroke:#b3b3b3;stroke-width:0.99999994;stroke-linecap:round;stroke-linejoin:miter;stroke-miterlimit:4;stroke-opacity:0.96862745;stroke-dasharray:none" />
    <rect
       width="10.979534"
       height="8.9561701"
       rx="0"
       ry="0"
       x="-13.508264"
       y="-12.510134"
       transform="matrix(-0.999992,0.0039942,0.0022949,-0.9999974,0,0)"
       id="rect3582"
       style="fill:url(#linearGradient2396);fill-opacity:1;stroke:url(#linearGradient2398);stroke-width:1.00000954;stroke-linecap:round;stroke-linejoin:miter;stroke-miterlimit:4;stroke-opacity:1;stroke-dasharray:none" />
  </g>
  <g
     transform="matrix(0.5999136,0,0,0.5999136,3.2006912,3.2006912)"
     id="g2561">
    <path
       d="m 8.0000011,0.50182787 c -4.1372321,0 -7.4981741,3.36093913 -7.4981741,7.49817173 0,4.1372334 3.360942,7.4981754 7.4981741,7.4981724 4.1372309,0 7.4981759,-3.360939 7.4981719,-7.4981724 0,-4.1372326 -3.360941,-7.49817173 -7.4981719,-7.49817173 z m 0,2.40724743 c 2.8127609,0 5.0909249,2.278165 5.0909249,5.0909243 0,1.180493 -0.409021,2.2580884 -1.082687,3.1213594 L 5.558201,3.5310432 C 6.28288,3.1345282 7.115286,2.9090753 8.0000011,2.9090753 z M 3.922653,4.9592664 10.349659,12.515029 c -0.7029369,0.366219 -1.5018289,0.575897 -2.3496579,0.575897 -2.8127601,0 -5.0909251,-2.278166 -5.0909251,-5.0909264 0,-1.1426829 0.378507,-2.1914086 1.013577,-3.0407332 z"
       id="path2555"
       style="fill:url(#radialGradient2482);fill-opacity:1;stroke:url(#linearGradient2484);stroke-width:1.67299819;stroke-linecap:round;stroke-linejoin:round;stroke-miterlimit:4;stroke-opacity:1;stroke-dasharray:none;stroke-dashoffset:0" />
    <path
       d="M 14.500001,7.9997709 C 14.500001,11.589737 11.589636,14.5 8.0000818,14.5 4.4101984,14.5 1.5000001,11.589705 1.5000001,7.9997709 c 0,-3.5898006 2.9101983,-6.4997695 6.5000817,-6.4997695 3.5895542,0 6.4999192,2.9099689 6.4999192,6.4997695 l 0,0 z"
       id="path2463"
       style="opacity:0.4;fill:none;stroke:url(#linearGradient2479);stroke-width:1.66690648;stroke-miterlimit:4;stroke-opacity:1;stroke-dasharray:none" />
    <path
       d="M 4.8517868,4.2102172 11.235855,11.701806"
       id="path3270"
       style="opacity:0.4;fill:none;stroke:url(#linearGradient2476);stroke-width:1.66690648px;stroke-linecap:round;stroke-linejoin:miter;stroke-opacity:1" />
  </g>
</svg>

<svg xmlns="http://www.w3.org/2000/svg" xmlns:xlink="http://www.w3.org/1999/xlink" viewBox="0 0 16 16"><defs><linearGradient id="a"><stop offset="0" stop-color="#fff"/><stop offset="1" stop-color="#e0e0e0"/></linearGradient><linearGradient x1="108.265" y1="110.281" x2="25.818" y2="14.029" id="h" xlink:href="#a" gradientUnits="userSpaceOnUse" gradientTransform="matrix(.16888 0 0 .12684 -19.447 -16.156)"/><linearGradient id="b"><stop offset="0" stop-color="#333"/><stop offset="1" stop-color="#292929"/></linearGradient><linearGradient x1="-24.032" y1="-13.091" x2="-24.098" y2="-40.164" id="j" xlink:href="#b" gradientUnits="userSpaceOnUse" gradientTransform="matrix(.3143 0 0 .33333 -.455 .998)"/><linearGradient id="c"><stop offset="0" stop-color="#262626"/><stop offset="1" stop-color="#828282"/></linearGradient><linearGradient x1="28.938" y1="17.333" x2="105.365" y2="92.824" id="i" xlink:href="#c" gradientUnits="userSpaceOnUse" gradientTransform="matrix(.13844 0 0 .1141 -17.41 -14.556)"/><linearGradient x1="7.832" y1="10.936" x2="18.678" y2="10.936" id="n" xlink:href="#d" gradientUnits="userSpaceOnUse" gradientTransform="matrix(.66608 0 0 .76587 -.57 -.57)"/><linearGradient x1="7.832" y1="10.936" x2="18.678" y2="10.936" id="d" gradientUnits="userSpaceOnUse" gradientTransform="scale(.93258 1.0723)"><stop offset="0" stop-color="#fff"/><stop offset="1" stop-color="#fff" stop-opacity="0"/></linearGradient><linearGradient x1="63.397" y1="-12.489" x2="63.397" y2="5.468" id="m" xlink:href="#e" gradientUnits="userSpaceOnUse" gradientTransform="matrix(.74324 0 0 .74322 -38.23 10.61)"/><linearGradient id="e"><stop offset="0" stop-color="#fff"/><stop offset="1" stop-color="#fff" stop-opacity="0"/></linearGradient><radialGradient cx="23.896" cy="3.99" r="20.397" fx="23.896" fy="3.99" id="k" xlink:href="#f" gradientUnits="userSpaceOnUse" gradientTransform="matrix(0 .87966 -1.16113 0 12.633 -21.084)"/><linearGradient id="f"><stop offset="0" stop-color="#f8b17e"/><stop offset=".262" stop-color="#e35d4f"/><stop offset=".661" stop-color="#c6262e"/><stop offset="1" stop-color="#690b54"/></linearGradient><linearGradient x1="18.379" y1="44.98" x2="18.379" y2="3.082" id="l" xlink:href="#g" gradientUnits="userSpaceOnUse" gradientTransform="translate(-.846 -.846) scale(.36857)"/><linearGradient id="g"><stop offset="0" stop-color="#791235"/><stop offset="1" stop-color="#dd3b27"/></linearGradient></defs><g stroke-linecap="round"><path transform="rotate(179.89) skewX(-.057)" fill="url(#h)" stroke="#b3b3b3" stroke-opacity=".969" d="M-15.487-14.5h14.99v12.97h-14.99z"/><rect width="10.98" height="8.956" rx="0" ry="0" x="-13.508" y="-12.51" transform="rotate(180) skewX(-.36)" fill="url(#i)" stroke="url(#j)"/></g><path d="M8 .502A7.503 7.503 0 0 0 .502 8 7.503 7.503 0 0 0 8 15.498 7.503 7.503 0 0 0 15.498 8 7.503 7.503 0 0 0 8 .502zM8 2.91A5.09 5.09 0 0 1 13.09 8a5.05 5.05 0 0 1-1.082 3.12l-6.45-7.59A5.073 5.073 0 0 1 8 2.91zM3.923 4.96l6.427 7.555A5.09 5.09 0 0 1 2.91 8c0-1.142.378-2.19 1.013-3.04z" fill="url(#k)" stroke="url(#l)" stroke-width="1.673" stroke-linecap="round" stroke-linejoin="round" transform="matrix(.6 0 0 .6 3.2 3.2)"/><path d="M14.5 8a6.5 6.5 0 1 1-13 0 6.5 6.5 0 0 1 13 0z" opacity=".4" fill="none" stroke="url(#m)" stroke-width="1.667" transform="matrix(.6 0 0 .6 3.2 3.2)"/><path d="M4.852 4.21l6.384 7.492" opacity=".4" fill="none" stroke="url(#n)" stroke-width="1.667" stroke-linecap="round" transform="matrix(.6 0 0 .6 3.2 3.2)"/></svg>
